X:1
T:Air
C:Jean Blanchard
A:France
Z:abc transcription Simon Wascher
F:http://simonwascher.info/
M:2/4
L:1/4
K:D
D |\
GB dc | A3 B/A/ | GB dc | ed cd |
B/A/G dc | A3 B/A/ | GB dc | e d2 :|
K:G
|: d |\
e>d e/f/g | fe ef/e/ | dBA B/c/ | B G F/E/ D |
e>d e/f/ g | fe ef/e/ | d B A/F/ E/D/ | G2- G :|
